X: 17560
T: Hit Or Miss
R: reel
M: 4/4
K: Cmajor
cdef gage|acgc fedc|(3ABc Gc ecag|fedc Bdde|
cdef gage|acgc fedc|(3ABc Gc ecag|1 gede c2cd:|2 gedec2ef||
|:gage fede|cdec dcAc|Gccc ceag|fedc Bdde|
fefa gedc|agab c'gec|dcde fefa|1 gede c2ef:|2 gede c2z2||

